X:1
T:My Gal is a High Born Lady
M:4/4
L:1/8
K:G
 BB| DD EE FF GG| B2 B4 BB| DD EE FF GG| B4- B z| AB| cd cB AB cA|\
 Bc BA GA BG| AB AG EF GE| A4- A z| BB| DD EE FF GG| B2 B4 ^AB| dd dd cc BB|\
 E4- E z| EE| dd dB cc cB| A^G Ac EE FE| DD dB AG AB| G4- G2| z2| B2 B4 DD|\
 E2 D2 B, D3| B2 B4 D2| E2 D2 B, D3| GG FF G2 A2| B2 d2 c2 B2| E2 A2 AA ^GA|\
 B2 A2 F2- D2| B2 B4 D2| E2 D2 B, D3| B2 B4 D2| E2 D2 B, D3| G3 F G2 A2|\
 B2 d2 E2 B2| A2 D2 E2 F2| G4- G2||
